X: 7
T: Horse and Buggy-o
M: 4/4
L: 1/4
Q: 125
R: Reel
K: A
EF| "A"A2 AB cBAB| ce e2 e2 EF| A2 A2 AcBA| "E"F2 E4 EF|
"A"A2 AB cBAB| ce e2 e2 ae| faec (3BcB Ac| (3BcB A2 A4 :|
|: "D"f2 f2 fede| f a2 f a3 f| e2 e2 eafe| "E"c2 "A"e4 e2| "D"f2 f2 fede|
 f a2 f a3 e|"A"
faec (3BcB Ac| (3BcB A2 A4 :|
